static/img/biostar2-logo.svg

<svg width="45" height="45" viewBox="0 0 45 45" fill="none" xmlns="http://www.w3.org/2000/svg">
<g clip-path="url(#clip0_16_6)">
<path d="M35.4375 0H9.5625C4.28128 0 0 4.28128 0 9.5625V35.4375C0 40.7187 4.28128 45 9.5625 45H35.4375C40.7187 45 45 40.7187 45 35.4375V9.5625C45 4.28128 40.7187 0 35.4375 0Z" fill="url(#paint0_linear_16_6)"/>
<path d="M23.8725 7.4363L28.1925 16.1775L37.845 17.5838C38.4187 17.6625 38.9025 18.0675 39.0825 18.63C39.2625 19.1813 39.1162 19.7888 38.7 20.205L31.7137 27.0113L33.3675 36.6188C33.4687 37.1925 33.2325 37.7775 32.76 38.115C32.2875 38.4525 31.6575 38.4975 31.14 38.2275L22.5112 33.6938L13.8825 38.2275C13.365 38.4975 12.735 38.4525 12.2625 38.115C11.79 37.7775 11.5537 37.1925 11.655 36.6188L13.3087 27.0113L6.3225 20.205C5.90625 19.8 5.74875 19.1925 5.94 18.63C6.12 18.0788 6.60375 17.6738 7.1775 17.5838L16.83 16.1775L21.15 7.4363C21.4087 6.90755 21.9375 6.5813 22.5225 6.5813C23.1075 6.5813 23.6362 6.9188 23.895 7.4363H23.8725Z" stroke="white" stroke-width="2" stroke-miterlimit="10"/>
</g>
<defs>
<linearGradient id="paint0_linear_16_6" x1="22.5" y1="45.2138" x2="22.5" y2="0.213751" gradientUnits="userSpaceOnUse">
<stop stop-color="#8B185F"/>
<stop offset="1" stop-color="#FFCC66"/>
</linearGradient>
<clipPath id="clip0_16_6">
<rect width="45" height="45" fill="white"/>
</clipPath>
</defs>
</svg>

<svg xmlns="http://www.w3.org/2000/svg" width="45" height="45" fill="none" viewBox="0 0 45 45"><g clip-path="url(#a)"><path fill="url(#b)" d="M35.438 0H9.561A9.563 9.563 0 0 0 0 9.563v25.874A9.563 9.563 0 0 0 9.563 45h25.874A9.563 9.563 0 0 0 45 35.438V9.561A9.563 9.563 0 0 0 35.438 0"/><path stroke="#fff" stroke-miterlimit="10" stroke-width="2" d="m23.873 7.436 4.32 8.741 9.652 1.407a1.52 1.52 0 0 1 1.238 1.046c.18.551.033 1.159-.383 1.575l-6.986 6.806 1.654 9.608a1.52 1.52 0 0 1-.608 1.496 1.56 1.56 0 0 1-1.62.112l-8.629-4.533-8.628 4.533a1.56 1.56 0 0 1-1.62-.112 1.52 1.52 0 0 1-.608-1.496l1.654-9.608-6.986-6.806a1.51 1.51 0 0 1-.383-1.575c.18-.551.664-.956 1.237-1.046l9.653-1.407 4.32-8.74a1.52 1.52 0 0 1 1.373-.856 1.54 1.54 0 0 1 1.372.855z"/></g><defs><linearGradient id="b" x1="22.5" x2="22.5" y1="45.214" y2=".214" gradientUnits="userSpaceOnUse"><stop stop-color="#8b185f"/><stop offset="1" stop-color="#fc6"/></linearGradient><clipPath id="a"><path fill="#fff" d="M0 0h45v45H0z"/></clipPath></defs></svg>
